archdroid-icon-theme/Archdroid-Indigo/status/scalable/rhythmbox-notplaying.svg

<svg xmlns="http://www.w3.org/2000/svg" height="48" viewBox="0 0 48 40" fill="#3F51B5"><path d="m34 0h-20c-2.21 0-4 1.79-4 4v32c0 2.21 1.79 3.98 4 3.98l20 .02c2.21 0 4-1.79 4-4v-32c0-2.21-1.79-4-4-4m-10 4c2.21 0 4 1.79 4 4 0 2.21-1.79 4-4 4-2.21 0-4-1.79-4-4 0-2.21 1.79-4 4-4m0 32c-5.52 0-10-4.48-10-10 0-5.52 4.48-10 10-10 5.52 0 10 4.48 10 10 0 5.52-4.48 10-10 10zm0-16c-3.31 0-6 2.69-6 6 0 3.31 2.69 6 6 6 3.31 0 6-2.69 6-6 0-3.31-2.69-6-6-6" opacity=".3"/></svg>

<?xml version="1.0" encoding="UTF-8" standalone="no"?>
<svg
   xmlns:dc="http://purl.org/dc/elements/1.1/"
   xmlns:cc="http://creativecommons.org/ns#"
   xmlns:rdf="http://www.w3.org/1999/02/22-rdf-syntax-ns#"
   xmlns:svg="http://www.w3.org/2000/svg"
   xmlns="http://www.w3.org/2000/svg"
   xmlns:sodipodi="http://sodipodi.sourceforge.net/DTD/sodipodi-0.dtd"
   xmlns:inkscape="http://www.inkscape.org/namespaces/inkscape"
   width="48"
   height="48"
   viewBox="0 0 48 40"
   id="svg2"
   version="1.1"
   inkscape:version="0.91 r13725"
   sodipodi:docname="rhythmbox-notplaying.svg"
   style="fill:#3F51B5">
  <metadata
     id="metadata10">
    <rdf:RDF>
      <cc:Work
         rdf:about="">
        <dc:format>image/svg+xml</dc:format>
        <dc:type
           rdf:resource="http://purl.org/dc/dcmitype/StillImage" />
        <dc:title />
      </cc:Work>
    </rdf:RDF>
  </metadata>
  <defs
     id="defs8" />
  <sodipodi:namedview
     pagecolor="#ffffff"
     bordercolor="#666666"
     borderopacity="1"
     objecttolerance="10"
     gridtolerance="10"
     guidetolerance="10"
     inkscape:pageopacity="0"
     inkscape:pageshadow="2"
     inkscape:window-width="836"
     inkscape:window-height="480"
     id="namedview6"
     showgrid="false"
     fit-margin-top="0"
     fit-margin-left="0"
     fit-margin-right="0"
     fit-margin-bottom="0"
     inkscape:zoom="6.549153645833334"
     inkscape:cx="8.18102291366371"
     inkscape:cy="20"
     inkscape:window-x="0"
     inkscape:window-y="30"
     inkscape:window-maximized="0"
     inkscape:current-layer="svg2" />
  <path
     d="M 34,0 14,0 c -2.21,0 -4,1.79 -4,4 l 0,32 c 0,2.21 1.79,3.98 4,3.98 L 34,40 c 2.21,0 4,-1.79 4,-4 L 38,4 C 38,1.79 36.21,0 34,0 Z M 24,4 c 2.21,0 4,1.79 4,4 C 28,10.21 26.21,12 24,12 21.79,12 20,10.21 20,8 20,5.79 21.79,4 24,4 Z m 0,32 c -5.52,0 -10,-4.48000000000001 -10,-10 0,-5.52 4.48,-10 10,-10 5.52,0 10,4.48 10,10 0,5.51999999999999 -4.48,10 -10,10 z m 0,-16 c -3.31,0 -6,2.69 -6,6 0,3.31 2.69,6 6,6 3.31,0 6,-2.69 6,-6 0,-3.31 -2.69,-6 -6,-6 z"
     id="path4"
     inkscape:connector-curvature="0"
     style="opacity:0.3" />
</svg>
